packages/crayons-core/src/components/icon/icon-assets/icons/email.svg

<?xml version="1.0" encoding="UTF-8"?>
<svg width="16px" height="12px" viewBox="0 0 16 12" version="1.1" xmlns="http://www.w3.org/2000/svg" xmlns:xlink="http://www.w3.org/1999/xlink">
    <!-- Generator: Sketch 52.6 (67491) - http://www.bohemiancoding.com/sketch -->
    <title>icon/email</title>
    <desc>Created with Sketch.</desc>
    <g id="Icons-✅" stroke="none" stroke-width="1" fill="none" fill-rule="evenodd">
        <g id="Icons" transform="translate(-490.000000, -2126.000000)" fill="currentColor">
            <g id="icon/email" transform="translate(490.000000, 2126.000000)">
                <g id="email">
                    <path d="M14.3,12 L1.7,12 C0.761115925,12 1.14980138e-16,11.2388841 0,10.3 L0,1.7 C-1.14980138e-16,0.761115925 0.761115925,0 1.7,0 L14.3,0 C15.2388841,0 16,0.761115925 16,1.7 L16,10.3 C16,11.2388841 15.2388841,12 14.3,12 Z M1.7,1.4 C1.53431458,1.4 1.4,1.53431458 1.4,1.7 L1.4,10.3 C1.4,10.4656854 1.53431458,10.6 1.7,10.6 L14.3,10.6 C14.4656854,10.6 14.6,10.4656854 14.6,10.3 L14.6,1.7 C14.6,1.53431458 14.4656854,1.4 14.3,1.4 L1.7,1.4 Z M8,7.39 C7.64317124,7.39944224 7.29270535,7.29430247 7,7.09 L2.31,3.87 C1.99243627,3.65460895 1.90960895,3.22256373 2.125,2.905 C2.34039105,2.58743627 2.77243627,2.50460895 3.09,2.72 L7.85,5.94 C7.95011975,6.00593414 8.07988025,6.00593414 8.18,5.94 L12.91,2.73 C13.1154277,2.59066642 13.3795843,2.57151126 13.6029646,2.67975009 C13.8263449,2.78798892 13.975012,3.00717768 13.9929646,3.25475009 C14.0109172,3.5023225 13.8954277,3.74066642 13.69,3.88 L9,7.09 C8.70698686,7.29366518 8.35673492,7.39874076 8,7.39 Z" id="Combined-Shape"></path>
                </g>
            </g>
        </g>
    </g>
</svg>

<svg viewBox="0 0 16 12"><path d="M14.3 12H1.7A1.7 1.7 0 0 1 0 10.3V1.7A1.7 1.7 0 0 1 1.7 0h12.6A1.7 1.7 0 0 1 16 1.7v8.6a1.7 1.7 0 0 1-1.7 1.7zM1.7 1.4a.3.3 0 0 0-.3.3v8.6a.3.3 0 0 0 .3.3h12.6a.3.3 0 0 0 .3-.3V1.7a.3.3 0 0 0-.3-.3H1.7zM8 7.39a1.67 1.67 0 0 1-1-.3L2.31 3.87a.695.695 0 0 1 .78-1.15l4.76 3.22a.3.3 0 0 0 .33 0l4.73-3.21a.695.695 0 1 1 .78 1.15L9 7.09a1.68 1.68 0 0 1-1 .3z" fill="currentColor" fill-rule="evenodd"/></svg>
